X:90
T:B090-  The Cramp
Q:1/4=120
L:1/4
M:6/4
K:Dm
G|d2dc2c|(d3/2c/2)BA2G|d3/2_e/2dc2e|d3G2:|z|\
G2BA3|G2zc3|G2BA3|[1 G2zd2:|[2 G3/2G/2ed2|]

